X: 1
T: CEC TAYLOR'S WALTZ
O: from Cec Taylor and Harry Venn, Wirri, NSW
R: waltz
Z: 2014 John Chambers <jc:trillian.mit.edu>
N: In a set for Luciens Waltz
M: 3/4
L: 1/8
K: D
[|\
"D"Ad fd fd | Ad fd fd | "A7"A2 g2 f2 | e4 A2 |\
Ac ec ec | Ac ec ec | "D"A2 f2 e2 | f4 A2 |
"D"Ad fd fd | Ad fd fd | "G"Bd gd gd | Bd gd gd |\
"A7"a2 b2 a2 | (3gag f2 e2 | "D"d4 d2 | d2 c2 =c2 ||
"G"B3 A (3Bcd | e2 d2 B2 | "D"A3 F Ad | (3fgf e2 d2 |\
"A7"c3 B ce | (3gag f2 a2 | "D"f3 e (3dcB | A2 F2 A2 |
"G"B3 A (3Bcd | e2 d2 B2 | "D"A3 F Ad | (3fgf e2 d2 |\
"A7"c3 B ce | (3gag f2 e2 | "D"d2 f2 e2 | d6 |]
